X: 35561
T: Rusty Gulley, The
R: three-two
M: 3/2
K: Bminor
B2 de f2 B2 d2 B2|c2 e2 e2 d2 c2 F2|B2 de f2 B2 d2 B2|Bc g2 f2 d2 e2 z2|
B2 de f2 B2 d2 B2|c2 e2 e2 d2 c2 F2|Bcde f2 B2 d2 B2|c2 g2 f2 d2 e2 z2||
b4 a4 g4|a2 e2e2 g2 f2 e2|g4 f4 e4|f2 B2 B2 d2 c2 B2|
b4 a4 g4|a2 e2e2 g2 f2 e2|g4 f4 e4|f2 B2 B2 d2 c2 z2||

